X:1
T:Die Schule der linken Hand, Op.399 No.1
T:Piano Forte.
T:C. Czerny. Op: 399
C:Czerny, Carl
%%score { ( 1 3 4 ) | 2 }
L:1/8
Q:1/2=88
M:4/4
K:C
V:1 treble nm="Grand Piano" snm="Pno."
V:3 treble 
V:4 treble 
V:2 bass 
V:1
"^Allegro vivace. M. M."!f! !arpeggio![cegc']2 z2 z4 | [Afa]4 [Gdg]4 | %2
 [Gc] z [Ee] z [Ad] z [Ff] z | [Be] z [Gg] z [cf] z [Aa] z | [Gg] z ([Gdg]2 [G_eg]2 [G=eg]2 | %5
 [Gfg]2 [Gfg]2 [Geg]2 [G_eg]2) | [Gdg] z [^F_e^f] z [Gdg] z [Fef] z | %7
 [Gdg] z [Gd=f] z [Gc=e] z [GBd] z | [Gc] z (e4 c2) | A z (f4 d2 | B) z g4 e2 | c z a4 d2 | %12
 [GBd] z z2 [dbd']4- | [dbd'] z [dgd'] z [Bdb] z [GBg] z | [Ad^f] z z2 [dfc']4- | %15
 [dfc'] z [da] z [d^f] z [fa] z | [DGBd] z z2 [dgbd']4- | [dgbd'] z [dgd'] z [Bdb] z [GBg] z | %18
 [Ad^f] z z2!8va(! [ad'^f'a']4- | [ad'f'a']!8va)! z [dac'] z [d^fa] z [dfad'] z | %20
 [Bdgb] z [GBd]4 [Gdg] z | [^Fcd^f] z [FAd]4 [Adfa] z | [^Gd=f^g] z [GBf]4 [Bfgb] z | %23
 [Aea] z [Ace]4 [ceac'] z | [Bf_ab] z!8va(! [abd'_a']!8va)! z z4 | z8 |] %26
[K:Eb]!ff!!8va(! [bd'f'a']8- |"_dim:" [bd'f'a']4 [be'g'] z [bd'f'] z | %28
!p! [bb'] z [ge'] z [aa'] z [ad'] z | [gg'] z [ec'] z [ff'] z [f=b] z | %30
 [ee'] z [ca] z"_cresc:" [_d_d'] z [dg] z!8va)! | [cc'] z [Af] z [Bb] z [B=e] z | %32
!f! [Af]2 z2 z2 ([cc']2 | [_d_d']2 [cc']2) z2 ([ff']2 | !wedge![_d_d']2) !wedge![Bb]2 z2 ([Ff]2 | %35
 [_G_g]2 [Ff]2) z2 ([Bb]2 | !wedge![Gg]) z !wedge!E z z2 (g2{!turn!xxxx} | %37
 !wedge!a) z !wedge!E z z2!f! (=a2{!turn!xxxx} | !wedge!b) z !wedge!E z z2 (=b2{!turn!xxxx} | %39
 !wedge!c') z !wedge!E z z2 (c'2{!turn!xxxx} |!ff! _d') z [=EG_d] z [_E_Gc] z [e_gc'] z | %41
 [=df_c'] z [=DF_c] z [_D=EB] z [_d=eb] z | [c_e=a] z [CE=A] z [=B,D_A] z [=Bd_a] z | %43
 [_B_dg] z [B,_DG] z [=A,C_G] z [=Ac_g] z | [=Acd^f]8 |][K:C]"_dim:" z8 | %46
!p! z2!8va(! [^f^f']2 [ff']2 [ff']2 | [gg']4 [dd']4 | z2 [^f^f']2 [ff']2 [ff']2 | %49
"_cresc:" [gg']2!8va)! z2!f! [Bd=fb]4- | [Bdfb] z [Bd_ab] z [cgc'] z [fgbd'] z | %51
 [_egc'_e'] z z2 [^c=eg^c']4- | [cegc'] z [^ce_b^c'] z [dad'] z [gac'e'] z | %53
!>(! [fad'f'] z z2!>)!!p! F2 [_Bdf]2 | [FAcf]4 [Ff] z [fac'f'] z | [f_bd'f']4 F2 [_Bdf]2 | %56
 [FAcf]4 [Ff] z [fac'f'] z | [f_bf'] z [fa_e'] z [fbd'] z [c^fc'] z | %58
"_cresc:" [dg=b] z [d_ab] z [_egc'] z [=fbd'] z |!8va(! [gc'g'] z [gbf'] z [gc'_e'] z [d^gd'] z | %60
 [=ea^c'] z [e_bc'] z [fad'] z"_piu cresc:" [g^c'e'] z | %61
 [ad'f'] z [^fa_e'^f'] z [gd'g'] z [ac'f'a'] z | %62
 [_bd'g'_b'] z!f!!<(! [=bd'_a'=b'] z [c'_e'g'c''] z [d'f'b'd''] z!<)! | %63
!ff! [_e'g'c''_e''] z [_e_ac'e']6- | [eac'e']4!8va)! [^Fc^f]3 [Fcf] | [G=Bg] z (g4 =f2 | %66
 _e2 d2 c2 d2) |"_cresc:" =B z!8va(! g'4 f'2 | ([g_e']2 [fbd']2 [gc']2 [d_ad']2)!8va)! | %69
!p!"_dol." [dg=b] z (b4 ag) | (g2 ^f2 e2 d2) | d2!>(! (b4 ag!>)! | g2 ^f2 [cc']2 [cf]2) | %73
 [Bg]6 ([Bg]2 | _b2 a2 a2 a2) | (a2 !>!d'4 _a2) |"_cresc:" (_a2 g2 g2 g2 | g2 !>!c'4 g2 | %78
 g2 ^f2 f2 f2) |!f! [GBd=f]2 z2 z4 | %80
 z2!8va(! !wedge![f'f'']!wedge![e'e''] !wedge![d'd'']!wedge![c'c'']!wedge![bb']!wedge![aa'] | %81
"_cresc:" !wedge![gg']!wedge![ff']!wedge![ee']!wedge![dd']!8va)! !wedge![cc']!wedge![Bb]!wedge![Aa]!wedge![Gg] | %82
 !wedge![Ff]!wedge![Ee]!wedge![Dd]!wedge![Cc] !wedge![B,B]!wedge![Bg] !wedge![ca]!wedge![Bfgb] | %83
!ff! !arpeggio!!wedge![cegc']2 z2 z2 !wedge![cc']>!wedge![cc'] | !wedge![Bb]>!wedge![cc'] [dd']6 | %85
 !wedge![G,CG]2 z2 z2 !wedge![ee']>!wedge![ee'] | !wedge![dd']>!wedge![ee'] [ff']6 | %87
!p! [D=FGB] z [DFGB] z z4 | [EG=c] z [EGc] z z4 |"_cresc:" [=FGBd] z [FGBd] z z4 | %90
!f! [EGce] z [EGce] z z4 |!pp! [FBdf] z ([DF]4 [DF]2 |"_cresc:" [F_A]2 [FA]4 =B2 | %93
 [^D^G=B]2 [=DGB]2 [GB=d]2 [^FBd]2) |!f! [=FBd=f]2 [fbd'f']6 |!ff! [egc'e']4 [fbd']3 [fgb] | %96
 c'3 b a2 d'2 | d'2 c'2 [gb]2 [gbf']2 | [egc'e']4 [gbg']2 [Bfgb]2 | d'2 c'2 c'2 a2 | %100
 [Gceg]4 [B,DGB]4 | [CEGc]2 z2 z2"_dol." [Ge]2 | (e2 d2) z2 d2 | (d2"_dim:" c2) z2 [ge']2 | %104
!8va(! (e'2 d'2) z2 d'2 |!pp! (d'2 c'2) z2 [g'e'']2 | e''2 d''2 z2 [f'g'd'']2 | %107
 [e'g'c'']2 [g'e'']4 [f'g'd'']2 | [e'g'c'']2 [g'e'']4 [f'g'd'']2 |"_cresc:" [e'g'c'']8- | %110
 [e'g'c'']2 [c'e'g'c'']4 [c'e'g'c'']2- | %111
!f!"_cresc:" [c'e'g'c'']2 [c'e'g'c'']2 [c'e'g'c'']2 [c'e'g'c'']2 | %112
!ff! [c'e'g'c'']!8va)! z [EGc] z z4 |] %113
V:2
 !arpeggio![C,,E,,G,,C,]2 E/G/E/D/ C/E/C/B,/ A,/C/A,/G,/ | %1
 F,/A,/F,/E,/ D,/F,/D,/C,/ B,,/D,/B,,/A,,/ G,,/B,,/G,,/F,,/ | %2
 E,,/G,,/E,,/D,,/ C,,/C,/A,,/G,,/ F,,/A,,/F,,/E,,/ D,,/D,/B,,/A,,/ | %3
 G,,/B,,/G,,/F,,/ E,,/E,/C,/B,,/ A,,/C,/A,,/G,,/ F,,/F,/D,/C,/ | %4
 B,,/D,/G,,/G,/ B,,/D,/G,,/G,/ C,/_E,/G,,/G,/ ^C,/=E,/G,,/G,/ | %5
 D,/F,/G,,/G,/ D,/F,/G,,/G,/ ^C,/E,/G,,/G,/ =C,/_E,/G,,/G,/ | %6
 B,,/D,/G,,/G,/ C,/_E,/G,,/A,/ B,,/D,/G,,/G,/ C,/E,/G,,/A,/ | %7
 B,,/D,/G,,/G,/ B,,/D,/G,,/G,/ C,/=E,/G,,/G,/ D,/F,/G,,/G,/ | %8
 E,/F,/E,/D,/ C,/B,,/A,,/G,,/ F,,/E,,/D,,/C,,/ C,/D,/E,/C,/ | %9
 F,/G,/F,/E,/ D,/C,/B,,/A,,/ G,,/F,,/E,,/D,,/ D,/E,/F,/D,/ | %10
 G,/A,/G,/F,/ E,/D,/C,/B,,/ A,,/G,,/F,,/E,,/ E,/F,/G,/E,/ | %11
 A,/B,/A,/G,/ F,/E,/D,/C,/ B,,/A,,/G,,/F,,/ ^F,,/A,,/D,,/F,,/ | %12
 G,,/^A,,/B,,/^C,/ D,/^F,/G,/^A,/ B,/^C/D/F,/ G,/A,/B,/C,/ | %13
 D,/^F,/G,/^A,,/ B,,/^C,/D,/^F,,/ G,,/A,,/B,,/^C,,/ D,,/F,,/G,,/B,,,/ | %14
 =C,,/=A,,,/B,,,/C,,/ D,,/E,,/^F,,/G,,/ A,,/B,,/C,/D,/ E,/^F,/G,/A,/ | %15
 B,/C/D/E/[K:treble] ^F/G/A/F/[K:bass] D/C/A,/^F,/ D,/C,/A,,/D,/ | %16
 G,,/B,,/D,/G,/ ^A,/B,/^C/D/ B,/^F,/G,/B,/ G,/^C,/D,/G,/ | %17
 D,/^A,,/B,,/D,/ B,,/^F,,/G,,/B,,/ G,,/^C,,/D,,/G,,/ D,,/^A,,,/B,,,/D,,/ | %18
 =C,,/A,,,/D,,/C,,/ ^F,,/D,,/A,,/F,,/ C,/A,,/D,/C,/ ^F,/D,/A,/F,/ | %19
 C/A,/D/C/[K:treble] ^F/D/A/F/ c/A/F/D/[K:bass] C/A,/^F,/D,/ | %20
 G,/G,,/G,/A,/ B,/C/B,/A,/ G,/G,,/G,/A,/ B,/B,,/B,/G,/ | %21
 A,/A,,/A,/B,/ C/D/C/B,/ A,/A,,/A,/B,/ C/C,/C/A,/ | B,/B,,/B,/C/ D/E/D/C/ B,/B,,/B,/C/ D/D,/D/B,/ | %23
 C/C,/C/D/ E/F/E/D/ C/D/C/B,/ A,/B,/C/A,/ | D/D,/D/E/[K:treble] F/_A/B/d/ f/d/B/A/ F/A/D/F/ | %25
[K:bass] B,/D/_A,/B,/ F,/A,/D,/F,/ B,,/D,/_A,,/B,,/ F,,/A,,/D,,/F,,/ |] %26
[K:Eb] B,,,/C,,/D,,/E,,/ F,,/G,,/A,,/B,,/ C,/D,/E,/F,/ G,/A,/B,/C/ | %27
[K:treble] D/E/F/G/ A/B/c/d/ e/f/g/e/ f/g/a/f/ | g/f/e/d/ c/d/e/c/ f/e/d/c/ B/c/d/B/ | %29
 e/d/c/B/ A/B/c/A/ d/c/=B/=A/ G/A/B/G/ | c/_B/_A/G/ F/G/A/F/ B/A/G/F/ E/F/G/E/ | %31
 A/G/F/E/ _D/E/F/D/ G/F/=E/D/[K:bass] C/B,/A,/G,/ | %32
 F,/G,/A,/F/ A,/G,/A,/G,/ F,/G,/A,/F/ A,/G,/A,/G,/ | %33
 F,/G,/A,/F/ A,/G,/A,/G,/ F,/G,/A,/G,/ F,/E,/_D,/C,/ | %34
 B,,/C,/_D,/B,/ D,/C,/D,/C,/ B,,/C,/D,/B,/ D,/C,/D,/C,/ | %35
 B,,/C,/_D,/B,/ D,/C,/D,/C,/ B,,/C,/D,/C,/ B,,/A,,/=G,,/F,,/ | %36
 E,,/F,,/G,,/E,/ G,,/F,,/G,,/F,,/ E,,/F,,/G,,/E,/ E,,/F,,/G,,/E,/ | %37
 F,,/G,,/A,,/E,/ A,,/G,,/A,,/G,,/ F,,/G,,/A,,/E,/ ^F,,/G,,/=A,,/E,/ | %38
 G,,/_A,,/B,,/E,/ B,,/A,,/B,,/A,,/ G,,/A,,/B,,/E,/ G,,/A,,/=B,,/E,/ | %39
 A,,/_B,,/C,/E,/ C,/B,,/C,/B,,/ A,,/B,,/C,/E,/ =A,,/C,/E,/_G,/ | %40
 B,,/=E,/G,/_D/ G,/E,/G,/E,/ C/_G,/_E,/=A,,/ E,/G,/E,/G,/ | %41
 _A,,/=D,/F,/_C/ F,/D,/F,/D,/ B,/=E,/_D,/=G,,/ D,/E,/D,/E,/ | %42
 _G,,/C,/_E,/=A,/ E,/C,/E,/C,/ _A,/=D,/=B,,/F,,/ B,,/D,/B,,/D,/ | %43
 =E,,/_B,,/_D,/=G,/ D,/B,,/D,/B,,/ _G,/C,/=A,,/_E,,/ A,,/C,/A,,/C,/ | %44
 =D,,/=A,,/C,/^F,/ C,/A,,/C,/A,,/ D,,/A,,/C,/F,/ ^F,,/C,/D,/=A,/ |] %45
[K:C] A,,/D,/^F,/C/ C,/F,/A,/D/ D,/A,/C/^F/[K:treble] ^F,/C/D/A/ | %46
 A,/D/^F/A/ B/c/d/c/ C/D/F/A/ ^G/A/B/A/ | B,/D/G/d/ ^A/B/=c/B/ ^F/G/=A/G/ ^C/D/E/D/ | %48
 A,/D/^F/c/ B/c/d/c/ C/D/F/A/ ^G/A/B/A/ | B,/D/G/B/ ^c/d/B/G/ _A/G/=F/_E/[K:bass] D/=C/B,/_A,/ | %50
 G,/^F,/_A,/G,/ =F,/A,/G,/F,/ _E,/G,/F,/E,/ D,/F,/E,/D,/ | %51
 C,/C,,/C,/_E,/[K:treble] G,/C/_E/G/ _B/=A/G/F/ =E/D/^C/_B,/ | %52
[K:bass] =A,/^G,/_B,/A,/ =G,/B,/A,/G,/ F,/A,/G,/F,/ E,/G,/F,/E,/ | %53
 D,/F,/A,/F,/ D,/A,,/F,,/D,,/ _B,,,/D,,/F,,/_B,,/ D,/F,/_B,/D/ | %54
 _E/C/A,/F,/ _E,/C,/A,,/F,,/ F,,,/F,,/A,,/C,/ F,/A,/C/E/ | %55
 D/_B,/F,/D,/ _B,,/F,,/D,,/F,,/ _B,,,/D,,/F,,/B,,/ D,/F,/B,/D/ | %56
 _E/C/A,/F,/ _E,/C,/A,,/F,,/ F,,,/F,,/A,,/C,/ F,/A,/C/E/ | %57
 D/_E/F/D/ C/D/E/C/ _B,/C/D/B,/ _A,/=B,/C/A,/ | %58
 G,/^A,/B,/G,/ =F,/G,/_A,/F,/ _E,/^F,/G,/E,/ D,/E,/=F,/D,/ | %59
 _E,/F,/G,/E,/ D,/E,/F,/D,/ C,/D,/E,/C,/ _B,,/^C,/D,/B,,/ | %60
 =A,,/=E,/^C,/A,,/ =G,,/_B,,/A,,/G,,/ F,,/A,,/G,,/F,,/ E,,/G,,/F,,/E,,/ | %61
 D,,/F,,/E,,/D,,/ =C,,/_E,,/D,,/C,,/ _B,,,/D,,/C,,/B,,,/ A,,,/C,,/B,,,/A,,,/ | %62
 G,,,/_B,,/=A,,/G,,/ =F,,/_A,,/G,,/F,,/ _E,,/G,,/F,,/E,,/ D,,/F,,/E,,/D,,/ | %63
 C,,/_E,,/D,,/C,,/ _A,,,/C,,/E,,/C,,/ _A,,/E,,/C,/A,,/ _E,/C,/_A,/E,/ | %64
[K:treble] C/_A,/_E/C/ _A/E/C/A,/[K:bass] _E,/C,/_A,,/_E,,/ C,,/E,,/_A,,,/A,,/ | %65
 G,,,/G,,/^F,,/G,,/ G,,,/G,,/G,,/=B,,/ =A,,,/A,,/A,,/C,/ B,,,/B,,/B,,/D,/ | %66
 C,,/C,/C,/_E,/ D,,/D,/D,/F,/ _E,,/E,/E,/G,/ F,,/F,/F,/_A,/ | %67
 G,,/G,/G,/B,/ G,,/G,/G,/B,/ =A,,/=A,/A,/C/ B,,/B,/B,/D/ | %68
 C,/C/C/_E/ D,/D/D/F/ _E,/E/E/G/ F,/F/F/_A/ | %69
 !tenuto!.G,/!tenuto!.B,/!tenuto!.B,/!tenuto!.D/"_leggierem." !tenuto!.D,/!tenuto!.B,/!tenuto!.B,/!tenuto!.D/ !tenuto!.G,/!tenuto!.B,/!tenuto!.B,/!tenuto!.D/ !tenuto!.D,/!tenuto!.B,/!tenuto!.B,/!tenuto!.D/ | %70
 !tenuto!.A,/!tenuto!.C/!tenuto!.C/!tenuto!.D/ !tenuto!.D,/!tenuto!.C/!tenuto!.C/!tenuto!.D/ !tenuto!.^F,/!tenuto!.A,/!tenuto!.A,/!tenuto!.D/ !tenuto!.D,/!tenuto!.A,/!tenuto!.A,/!tenuto!.D/ | %71
 !tenuto!.G,/!tenuto!.B,/!tenuto!.B,/!tenuto!.D/ !tenuto!.D,/!tenuto!.B,/!tenuto!.B,/!tenuto!.D/ !tenuto!.G,/!tenuto!.B,/!tenuto!.B,/!tenuto!.D/ !tenuto!.D,/!tenuto!.B,/!tenuto!.B,/!tenuto!.D/ | %72
 !tenuto!.A,/!tenuto!.C/!tenuto!.C/!tenuto!.D/ !tenuto!.D,/!tenuto!.A,/!tenuto!.A,/!tenuto!.D/ !tenuto!._E,/!tenuto!.A,/!tenuto!.A,/!tenuto!._E/ !tenuto!.D,/!tenuto!.A,/!tenuto!.A,/!tenuto!.D/ | %73
 G,,/G,/^F,/G,/ G/G,/F,/G,/ G,,/G,/F,/G,/ G/G,/F,/G,/ | %74
 G,,/G,/^F,/G,/ G/G,/F,/G,/ G,,/G,/F,/G,/ G/G,/F,/G,/ | %75
 G,,/G,/^F,/G,/ G/G,/F,/G,/ G,,/G,/F,/G,/ G/G,/F,/G,/ | %76
 G,,/G,/^F,/G,/ G/G,/F,/G,/ G,,/G,/F,/G,/ G/G,/F,/G,/ | %77
 G,,/G,/^F,/G,/ G/G,/F,/G,/ G,,/G,/F,/G,/ G/G,/F,/G,/ | %78
 G,,/G,/^F,/G,/ G/G,/F,/G,/ G,,/G,/F,/G,/ G/G,/F,/G,/ | %79
 G,,/B,,/D,/B,,/ G,/D,/B,/G,/[K:treble] D/B,/G/D/ B/G/d/B/ | %80
 g/d/b/g/ ^c'/d'/b/=c'/ ^a/b/^g/=a/ ^f/=g/e/=f/ | ^d/e/^c/=d/ B/=c/^A/B/ ^G/=A/^F/=G/ E/=F/^D/E/ | %82
[K:bass] ^C/=D/B,/=C/ ^A,/B,/^G,/=A,/ ^F,/=G,/G,,/G,/ =F,,/=F,/D,,/D,/ | %83
 !arpeggio!!wedge![C,,E,,G,,C,]2 C/E/D/B,/ A,/C/B,/G,/ F,/A,/G,/E,/ | %84
 D,/F,/E,/C,/ B,,/D,/C,/A,,/ G,,/B,,/A,,/F,,/ E,,/G,,/F,,/D,,/ | %85
 !wedge![E,,E,]2[K:treble] E/G/F/D/ C/E/D/B,/[K:bass] A,/C/B,/G,/ | %86
 F,/A,/G,/E,/ D,/F,/E,/C,/ B,,/D,/C,/A,,/ G,,/B,,/A,,/^F,,/ | %87
 G,,/^A,,/B,,/^C,/ D,/^F,/G,/^A,/ B,/^C/D/B,/ G,/D,/B,,/^F,,/ | %88
 G,,/B,,/=C,/^D,/ E,/^F,/G,/B,/ C/^D/E/C/ G,/E,/C,/^F,,/ | %89
 G,,/^A,,/B,,/^C,/ D,/^F,/G,/^A,/ B,/=F/D/B,/ G,/D,/B,,/^F,,/ | %90
 G,,/B,,/C,/^D,/ E,/^F,/G,/B,/ C/G/E/C/ G,/E,/C,/G,,/ | %91
 G,,,/^F,,,/G,,,/G,,/ _A,,/G,,/A,,/_A,,,/ =A,,,/^G,,,/A,,,/=A,,/ _B,,/A,,/B,,/_B,,,/ | %92
 =B,,,/^A,,,/B,,,/=B,,/ C,/B,,/C,/C,,/ _D,,/C,,/D,,/_D,/ =D,/^C,/D,/=D,,/ | %93
 ^D,,/^^C,,/D,,/^D,/ =E,/^D,/E,/=E,,/ =F,,/E,,/F,,/F,/ ^F,/^E,/F,/^F,,/ | %94
 =G,,/G,,,/B,,,/=D,,/ G,,/B,,/D,/G,/ B,/G,/D/B,/ G,/D,/B,,/G,,/ | %95
 C,,/D,,/E,,/F,,/ G,,/A,,/B,,/C,/ D,/E,/F,/G,/ A,/B,/C/D/ | %96
[K:treble] E/F/G/A/ B/c/d/e/ f/e/f/e/ f/d/A/F/ | %97
 G/^F/G/F/ G/E/C/G,/[K:bass] ^F,/G,/=F,/D,/ B,,/G,,/F,,/D,,/ | %98
 C,,/C,/E,/G,/ C/G,/E,/C,/ D,,/D,/F,/B,/ D/B,/F,/D,/ | %99
 E,,/E,/G,/C/ E/C/G,/E,/ F,,/F,/A,/C/ F/C/A,/F,/ | %100
 G,,/C,/E,/G,/ C/E/C/G,/ F,/D,/B,,/G,,/ F,,/D,,/B,,,/G,,,/ | %101
 C,,/^C,,/D,,/^D,,/ E,,/F,,/^F,,/G,,/ ^G,,/A,,/^A,,/B,,/ =C,/=D,/E,/C,/ | %102
 =G,,/^G,,/=A,,/^A,,/ B,,/C,/^C,/D,/ ^D,/E,/F,/^F,/ =G,/=A,/B,/G,/ | %103
 =C,/^C,/=D,/^D,/ E,/=F,/^F,/G,/ ^G,/A,/^A,/B,/ =C/=D/E/C/ | %104
 =G,/^G,/A,/^A,/ B,/C/^C/D/[K:treble] ^D/E/F/^F/ =G/=A/B/G/ | %105
 =C/^C/=D/^D/ E/=F/^F/G/ ^G/A/^A/B/ =c/=d/e/c/ | =G/^G/=A/^A/ B/c/^c/d/ ^d/e/f/^f/ =g/=a/b/g/ | %107
 =c'/g/e/g/ c/^c/d/^d/ e/f/^f/g/ ^g/a/^a/b/ | =c'/=g/e/g/ c/^c/=d/^d/ e/=f/^f/=g/ ^g/=a/^a/b/ | %109
 =c'/b/_b/=a/ _a/=g/^f/=f/ e/_e/d/_d/ c/=B/_B/A/ | %110
 _A/G/^F/=F/ =E/_E/=D/_D/[K:bass] C/=B,/_B,/A,/ _A,/G,/^F,/=F,/ | %111
 =E,/_E,/=D,/_D,/ C,/=B,,/_B,,/=A,,/ _A,,/G,,/^F,,/=F,,/ =E,,/_E,,/=D,,/_D,,/ | %112
 [C,,C,] z [C,E,G,C] z z4 |] %113
V:3
 x8 | x8 | x8 | x8 | x8 | x8 | x8 | x8 | x2 E6 | F x F6 | G x G6 | A x [Ac]4 [Ac]2 | x8 | x8 | x8 | %15
 x8 | x8 | x8 | x4!8va(! x4 | x!8va)! x7 | x8 | x8 | x8 | x8 | x2!8va(! x!8va)! x5 | x8 |] %26
[K:Eb]!8va(! x8 | x8 | x8 | x8 | x8!8va)! | x8 | x8 | x8 | x8 | x8 | x8 | x8 | x8 | x8 | x8 | x8 | %42
 x8 | x8 | x8 |][K:C] x8 | x2!8va(! x6 | x8 | x8 | x2!8va)! x6 | x8 | x8 | x8 | x4 F4 | x8 | %55
 x4 F4 | x8 | x8 | x8 |!8va(! x8 | x8 | x8 | x8 | x8 | x4!8va)! x4 | x2 G6- | G6 _A2 | %67
 G x!8va(! g6- | x8!8va)! | x2 [Bd]6 | [cd]4 [Ac]4 | B2 [Bd]6 | [cd]4 x4 | x8 | %74
 [^ceg]4 [ceg]2 [ceg]2 | [d=fa]6 [=cf]2 | [=Bdf]4 [Bdf]2 [Bdf]2 | [ceg]6 [Bd]2 | %78
 [Ac_e]4 [Ace]2 [Ace]2 | x8 | x2!8va(! x6 | x4!8va)! x4 | x8 | x8 | x8 | x8 | x8 | x8 | x8 | x8 | %90
 x8 | x2 B,2 =A,2 ^G,2 | D2 C2 =B,2 [F_A]2 | x8 | x8 | x8 | g4 a4 | [eg]4 d2 x2 | x8 | d2 c2 c4 | %100
 x8 | x8 | [FG]4 x2 [FG]2 | [EG]4 x4 |!8va(! [fg]4 x2 [fg]2 | [eg]4 x4 | [f'g']4 x4 | x8 | x8 | %109
 x8 | x8 | x8 | x!8va)! x7 |] %113
V:4
 x8 | x8 | x8 | x8 | x8 | x8 | x8 | x8 | x8 | x8 | x8 | x8 | x8 | x8 | x8 | x8 | x8 | x8 | %18
 x4!8va(! x4 | x!8va)! x7 | x8 | x8 | x8 | x8 | x2!8va(! x!8va)! x5 | x8 |][K:Eb]!8va(! x8 | x8 | %28
 x8 | x8 | x8!8va)! | x8 | x8 | x8 | x8 | x8 | x8 | x8 | x8 | x8 | x8 | x8 | x8 | x8 | x8 |] %45
[K:C] x8 | x2!8va(! x6 | x8 | x8 | x2!8va)! x6 | x8 | x8 | x8 | x8 | x8 | x8 | x8 | x8 | x8 | %59
!8va(! x8 | x8 | x8 | x8 | x8 | x4!8va)! x4 | x8 | x8 | x2!8va(! x6 | x8!8va)! | x8 | x8 | x8 | %72
 x8 | x8 | x8 | x8 | x8 | x8 | x8 | x8 | x2!8va(! x6 | x4!8va)! x4 | x8 | x8 | x8 | x8 | x8 | x8 | %88
 x8 | x8 | x8 | x8 | x8 | x8 | x8 | x8 | x8 | x8 | x8 | g4 a2 f2 | x8 | x8 | x8 | x8 |!8va(! x8 | %105
 x8 | x8 | x8 | x8 | x8 | x8 | x8 | x!8va)! x7 |] %113

